X:35
T:Meerstern, ich dich gre!...
B:Frau Nachtigall (Straburg - 1928)
Z:<anamnese@laposte.net> -- http://anamnese.fr.st
N:p.138
M:C
L:1/4
Q:1/4=150
K:E
E>D EF | G2G z | B/G/ B/c/ B/A/ F/B/ |1 G2 z2:
|2 G2 z E/F/ | GG A/G/ A/c/ | BB zA | G/B/ G/E/ FF | E3 z |]
